static/picture/Google search app ads.svg

<svg width="350" height="360" xmlns="http://www.w3.org/2000/svg" xmlns:xlink="http://www.w3.org/1999/xlink" data-name="Layer 1">
 <defs>
  <clipPath id="clip-path">
   <rect id="svg_1" stroke="url(#linear-gradient)" stroke-width="0.85px" stroke-miterlimit="10" fill="none" rx="7.21" height="231.52" width="302" y="364.23" x="23.44" class="cls-1"/>
  </clipPath>
  <clipPath id="clip-path-2">
   <rect id="svg_2" clip-path="url(#clip-path)" stroke="url(#linear-gradient-2)" stroke-width="0.85px" stroke-miterlimit="10" fill="none" rx="6.95" height="129.44" width="83.22" y="419.35" x="36.41" class="cls-2"/>
  </clipPath>
  <clipPath id="clip-path-3">
   <circle id="svg_3" fill="none" r="13.73" cy="75.99" cx="307.86" class="cls-3"/>
  </clipPath>
  <linearGradient y2="-0.00186" x2="0.5" y1="1.00181" x1="0.5" id="linear-gradient">
   <stop stop-color="#fff" offset="0"/>
   <stop stop-color="#fbfbfb" offset="0.2"/>
   <stop stop-color="#eff0f1" offset="0.4"/>
   <stop stop-color="#dadcdf" offset="0.6"/>
   <stop stop-color="#bec2c6" offset="0.8"/>
   <stop stop-color="#9aa0a6" offset="1"/>
  </linearGradient>
  <linearGradient xlink:href="#linear-gradient" y2="418.93" x2="78.02" y1="549.21" x1="78.02" id="linear-gradient-2"/>
  <linearGradient xlink:href="#linear-gradient" y2="418.93" x2="167.88" y1="549.21" x1="167.88" id="linear-gradient-3"/>
  <linearGradient xlink:href="#linear-gradient" y2="418.93" x2="256.99" y1="549.21" x1="256.99" id="linear-gradient-7"/>
  <linearGradient xlink:href="#linear-gradient" y2="418.93" x2="348.63" y1="549.21" x1="348.63" id="linear-gradient-8"/>
 </defs>
 <g>
  <title>Layer 1</title>
  <path id="svg_4" stroke="#3b4043" fill="#fff" d="m12.77,38.35a25.48,25.48 0 0 1 25.49,-25.48l275.23,0a25.48,25.48 0 0 1 25.51,25.48l0,518.38l-326.23,0l0,-518.38z" class="cls-4"/>
  <path id="svg_5" stroke-linejoin="round" stroke-linecap="round" stroke="#3b4043" fill="none" d="m130,48.55l0,0a4.53,4.53 0 0 0 4.53,4.53l86.09,0a4.53,4.53 0 0 0 4.53,-4.53l0,0" class="cls-5"/>
  <rect id="svg_6" fill="#fff" height="4.04" width="275.18" y="221.86" x="38.28" class="cls-6"/>
  <rect id="svg_7" fill="#ffb600" height="4.04" width="93.55" y="221.86" x="38.28" class="cls-7"/>
  <rect id="svg_8" fill="#f9f9fa" height="55.12" width="275.18" y="226.07" x="38.28" class="cls-8"/>
  <rect id="svg_9" fill="#ffb600" height="7.32" width="14.78" y="265.87" x="104.76" class="cls-7"/>
  <line id="svg_10" stroke-linejoin="round" stroke-linecap="round" stroke="#3b4043" fill="none" y2="269.53" x2="192.61" y1="269.53" x1="175.87" class="cls-5"/>
  <line id="svg_11" stroke-linejoin="round" stroke-linecap="round" stroke="#3b4043" fill="none" y2="251.98" x2="213.4" y1="251.98" x1="104.76" class="cls-5"/>
  <line id="svg_12" stroke-width="2px" stroke-linejoin="round" stroke-linecap="round" stroke="#3b4043" fill="none" y2="241.93" x2="136.66" y1="241.93" x1="104.76" class="cls-9"/>
  <path id="svg_13" fill="#ffb800" d="m126.29,271.81a2.28,2.28 0 1 0 -2.28,-2.28a2.28,2.28 0 0 0 2.28,2.28z" class="cls-10"/>
  <path id="svg_14" fill="#ffb800" d="m136.6,271.81a2.28,2.28 0 1 0 -2.28,-2.28a2.28,2.28 0 0 0 2.28,2.28z" class="cls-10"/>
  <path id="svg_15" fill="#ffb800" d="m146.91,271.81a2.28,2.28 0 1 0 -2.28,-2.28a2.28,2.28 0 0 0 2.28,2.28z" class="cls-10"/>
  <path id="svg_16" fill="#e7e9ec" d="m157.22,271.81a2.28,2.28 0 1 0 -2.28,-2.28a2.28,2.28 0 0 0 2.28,2.28z" class="cls-11"/>
  <path id="svg_17" fill="#e7e9ec" d="m167.53,271.81a2.28,2.28 0 1 0 -2.28,-2.28a2.28,2.28 0 0 0 2.28,2.28z" class="cls-11"/>
  <rect id="svg_18" fill="#0f81ff" height="13.04" width="54.17" y="247.31" x="245.76" class="cls-12"/>
  <path id="svg_19" stroke-linejoin="round" stroke-linecap="round" stroke="#3b4043" fill="none" d="m38.28,300.45l244.66,0" class="cls-5"/>
  <path id="svg_20" stroke-linejoin="round" stroke-linecap="round" stroke="#3b4043" fill="none" d="m38.28,313.37l244.66,0" class="cls-5"/>
  <path id="svg_21" stroke-linejoin="round" stroke-linecap="round" stroke="#3b4043" fill="none" d="m38.28,326.29l121.22,0" class="cls-5"/>
  <path id="svg_22" stroke-linejoin="round" stroke-linecap="round" stroke="#3b4043" fill="none" d="m38.28,392.43l121.22,0" class="cls-5"/>
  <path id="svg_23" stroke-linejoin="round" stroke-linecap="round" stroke="#3b4043" fill="none" d="m38.28,339.21l20.39,0" class="cls-5"/>
  <path id="svg_24" stroke-linejoin="round" stroke-linecap="round" stroke="#3b4043" fill="none" d="m64.79,204.68l20.39,0" class="cls-5"/>
  <path id="svg_25" stroke-width="2px" stroke-linejoin="round" stroke-linecap="round" stroke="#3b4043" fill="none" d="m45,124.68l57.8,0" class="cls-9"/>
  <path id="svg_26" stroke="#0f81ff" stroke-miterlimit="10" fill="none" d="m31.18,158.54l22.62,0" class="cls-13"/>
  <path id="svg_27" stroke="#0f81ff" stroke-miterlimit="10" fill="none" d="m94.25,158.54l42.59,0" class="cls-13"/>
  <path id="svg_28" stroke="#0f81ff" stroke-miterlimit="10" fill="none" d="m158.43,158.54l42.57,0" class="cls-13"/>
  <path id="svg_29" stroke="#0f81ff" stroke-miterlimit="10" fill="none" d="m222.62,158.54l42.6,0" class="cls-13"/>
  <path id="svg_30" stroke="#0f81ff" stroke-miterlimit="10" fill="none" d="m286.8,158.54l42.6,0" class="cls-13"/>
  <path id="svg_31" stroke-width="2px" stroke-linejoin="round" stroke-linecap="round" stroke="#3b4043" fill="none" d="m110.32,124.68l32.78,0" class="cls-9"/>
  <rect id="svg_32" fill="#0f81ff" rx="4.93" height="40.27" width="40.27" y="233.5" x="52.54" class="cls-12"/>
  <path id="svg_33" fill="#fff" d="m62.82,240.28l0,25.59l15.18,-15.15a25.89,25.89 0 0 0 -15.18,-10.44z" class="cls-6"/>
  <path id="svg_34" fill="#c9e1ff" d="m75.86,265.87l6.65,0c0,-0.17 0,-0.34 0,-0.51a25.69,25.69 0 0 0 -4.51,-14.64l-15.18,15.15c0.11,-0.11 6.75,-0.07 13.04,0z" class="cls-14"/>
  <g id="svg_35" isolation="isolate" class="cls-15">
   <rect id="svg_36" stroke="url(#linear-gradient)" stroke-width="0.85px" stroke-miterlimit="10" fill="none" rx="7.21" height="231.52" width="302" y="364.23" x="23.44" class="cls-1"/>
   <rect id="svg_37" stroke="url(#linear-gradient-2)" stroke-width="0.85px" stroke-miterlimit="10" fill="none" rx="6.95" height="129.44" width="83.22" y="419.35" x="36.41" class="cls-16"/>
   <rect id="svg_38" stroke="url(#linear-gradient-3)" stroke-width="0.85px" stroke-miterlimit="10" fill="none" rx="6.95" height="129.44" width="83.22" y="419.35" x="126.27" class="cls-17"/>
   <rect id="svg_39" stroke="url(#linear-gradient-7)" stroke-width="0.85px" stroke-miterlimit="10" fill="none" rx="6.95" height="129.44" width="83.22" y="419.35" x="215.38" class="cls-18"/>
  </g>
  <rect id="svg_40" stroke="url(#linear-gradient-8)" fill="#fff" stroke-width="0.85px" stroke-miterlimit="10" rx="6.95" height="129.44" width="83.22" y="419.35" x="307.02" class="cls-19"/>
  <circle id="svg_41" fill="#faba05" r="13.73" cy="75.99" cx="307.86" class="cls-20"/>
  <g id="svg_42" clip-path="url(#clip-path-3)" class="cls-21">
   <circle id="svg_43" stroke="#fff" stroke-linejoin="round" stroke-linecap="round" fill="none" r="7.86" cy="86.41" cx="307.81" class="cls-22"/>
  </g>
  <circle id="svg_44" stroke="#fff" stroke-linejoin="round" stroke-linecap="round" fill="none" r="3.56" cy="72.32" cx="307.79" class="cls-22"/>
  <path id="svg_45" fill="#4285f4" d="m145,82.63a9.85,9.85 0 1 1 0,-19.7a9.38,9.38 0 0 1 6.75,2.71l-1.9,1.9a6.85,6.85 0 0 0 -4.85,-1.92a7.16,7.16 0 0 0 0,14.32a6.58,6.58 0 0 0 5,-2a5.59,5.59 0 0 0 1.47,-3.39l-6.47,0l0,-2.66l9.06,0a9.34,9.34 0 0 1 0.14,1.68a8.89,8.89 0 0 1 -2.33,6.3a9,9 0 0 1 -6.87,2.76z" class="cls-23"/>
  <path id="svg_46" fill="#ea4335" d="m168.57,76.29a6.32,6.32 0 1 1 -6.31,-6.35a6.24,6.24 0 0 1 6.31,6.35zm-2.77,0a3.56,3.56 0 1 0 -3.54,3.84a3.64,3.64 0 0 0 3.54,-3.84z" class="cls-24"/>
  <path id="svg_47" fill="#fbbc05" d="m182.59,76.29a6.31,6.31 0 1 1 -6.31,-6.35a6.24,6.24 0 0 1 6.31,6.35zm-2.76,0a3.56,3.56 0 1 0 -3.55,3.84a3.64,3.64 0 0 0 3.55,-3.84z" class="cls-25"/>
  <path id="svg_48" fill="#4285f4" d="m196.32,70.33l0,11.39c0,4.68 -2.77,6.61 -6,6.61a6.06,6.06 0 0 1 -5.62,-3.75l2.43,-1a3.51,3.51 0 0 0 3.19,2.26c2.1,0 3.39,-1.3 3.39,-3.73l0,-0.91l-0.09,0a4.33,4.33 0 0 1 -3.34,1.44a6.35,6.35 0 0 1 0,-12.69a4.43,4.43 0 0 1 3.34,1.42l0.09,0l0,-1l2.61,-0.04zm-2.46,6a3.57,3.57 0 0 0 -3.38,-3.87a3.86,3.86 0 0 0 0,7.69a3.54,3.54 0 0 0 3.38,-3.84l0,0.02z" class="cls-23"/>
  <path id="svg_49" fill="#34a853" d="m201.92,63.6l0,18.65l-2.79,0l0,-18.65l2.79,0z" class="cls-26"/>
  <path id="svg_50" fill="#ea4335" d="m213.78,78.38l2.16,1.44a6.33,6.33 0 0 1 -5.29,2.81a6.21,6.21 0 0 1 -6.3,-6.34a6,6 0 0 1 6,-6.35a5.9,5.9 0 0 1 5.43,4l0.29,0.72l-8.48,3.51a3.21,3.21 0 0 0 3.07,1.92a3.63,3.63 0 0 0 3.12,-1.71zm-6.66,-2.28l5.67,-2.36a2.47,2.47 0 0 0 -2.36,-1.35a3.48,3.48 0 0 0 -3.31,3.71z" class="cls-24"/>
  <line id="svg_51" stroke-width="1.43px" stroke="#9aa0a6" stroke-miterlimit="10" fill="none" y2="84.74" x2="40.91" y1="84.74" x1="23.7" class="cls-27"/>
  <line id="svg_52" stroke-width="1.43px" stroke="#9aa0a6" stroke-miterlimit="10" fill="none" y2="72.72" x2="40.91" y1="72.72" x1="23.7" class="cls-27"/>
  <line id="svg_53" stroke-width="1.43px" stroke="#9aa0a6" stroke-miterlimit="10" fill="none" y2="78.7" x2="40.91" y1="78.7" x1="23.7" class="cls-27"/>
  <path id="svg_54" fill="#9aa0a6" d="m182.77,396.63l-9.14,0l0,-9.15l4.57,0l0,-1.3l-4.57,0a1.3,1.3 0 0 0 -1.31,1.3l0,9.15a1.31,1.31 0 0 0 1.31,1.31l9.14,0a1.31,1.31 0 0 0 1.31,-1.31l0,-4.57l-1.31,0l0,4.57zm-3.26,-10.45l0,1.3l2.34,0l-6.42,6.42l0.92,0.93l6.42,-6.43l0,2.35l1.31,0l0,-4.57l-4.57,0z" class="cls-28"/>
  <rect id="svg_55" stroke-linejoin="round" stroke-linecap="round" stroke="#3b4043" fill="none" rx="7.21" height="166.29" width="301.85" y="186.44" x="24.14" class="cls-5"/>
  <path id="svg_56" fill="#3c4043" d="m44.62,206.55l-2.43,0l-0.46,1.39l-1.47,0l2.5,-6.72l1.24,0l2.52,6.72l-1.44,0l-0.46,-1.39zm-2.06,-1.12l1.68,0l-0.84,-2.52l-0.84,2.52z" class="cls-29"/>
  <path id="svg_57" fill="#3c4043" d="m46.89,205.4a3,3 0 0 1 0.52,-1.86a1.71,1.71 0 0 1 1.44,-0.69a1.54,1.54 0 0 1 1.2,0.54l0,-2.54l1.34,0l0,7.09l-1.21,0l-0.06,-0.54a1.56,1.56 0 0 1 -1.28,0.63a1.69,1.69 0 0 1 -1.42,-0.7a3.12,3.12 0 0 1 -0.53,-1.93zm1.33,0.1a1.92,1.92 0 0 0 0.25,1.08a0.79,0.79 0 0 0 0.71,0.37a0.89,0.89 0 0 0 0.87,-0.52l0,-2a0.88,0.88 0 0 0 -0.86,-0.53c-0.65,0.03 -0.97,0.56 -0.97,1.6z" class="cls-29"/>
  <path id="svg_58" fill="#3c4043" d="m57.26,204.72a0.66,0.66 0 0 1 0.22,-0.52a0.77,0.77 0 0 1 0.52,-0.2a0.8,0.8 0 0 1 0.54,0.2a0.69,0.69 0 0 1 0.21,0.52a0.66,0.66 0 0 1 -0.21,0.51a0.8,0.8 0 0 1 -0.54,0.2a0.77,0.77 0 0 1 -0.55,-0.2a0.69,0.69 0 0 1 -0.19,-0.51z" class="cls-29"/>
  <rect id="svg_59" stroke="#bdc1c6" stroke-width="0.85px" stroke-miterlimit="10" fill="none" rx="15.88" height="32.47" width="291.64" y="108.12" x="30.5" class="cls-30"/>
  <path id="svg_60" stroke="#1967d2" fill="#4285f4" stroke-width="0.85px" stroke-miterlimit="10" d="m287.9,140.77l18,0a16.24,16.24 0 0 0 16.23,-16.24l0,0a16.23,16.23 0 0 0 -16.23,-16.23l-18,0l0,32.47z" class="cls-31"/>
  <path id="svg_61" fill="#fffff4" d="m311.88,129.25l-4.21,-4.25a5.27,5.27 0 1 0 -1.21,1.3l4.17,4.17l1.25,-1.22zm-12,-7a3.4,3.4 0 1 1 3.4,3.4a3.41,3.41 0 0 1 -3.36,-3.41l-0.04,0.01z" class="cls-32"/>
  <rect id="svg_62" fill="#4285f4" height="3.15" width="45.13" y="172.44" x="19.89" class="cls-23"/>
  <line id="svg_63" stroke-width="0.71px" stroke="#bdc1c6" stroke-miterlimit="10" fill="none" y2="175.63" x2="339.45" y1="175.63" x1="12.82" class="cls-33"/>
  <path id="svg_64" fill="#757575" d="m269.19,126.62a2.61,2.61 0 0 0 2.61,-2.62l0,-5.24a2.62,2.62 0 0 0 -5.23,0l0,5.24a2.61,2.61 0 0 0 2.62,2.62zm4.63,-2.62a4.63,4.63 0 0 1 -9.25,0l-1.48,0a6.09,6.09 0 0 0 5.23,5.86l0,2.86l1.75,0l0,-2.86a6.08,6.08 0 0 0 5.23,-5.86l-1.48,0z" class="cls-34"/>
 </g>
</svg>

<svg id="Layer_1" data-name="Layer 1" xmlns="http://www.w3.org/2000/svg" xmlns:xlink="http://www.w3.org/1999/xlink" viewBox="0 0 350 550"><defs><style>.cls-1,.cls-13,.cls-16,.cls-17,.cls-18,.cls-2,.cls-22,.cls-27,.cls-3,.cls-30,.cls-33,.cls-5,.cls-9{fill:none;}.cls-1,.cls-13,.cls-16,.cls-17,.cls-18,.cls-19,.cls-2,.cls-27,.cls-30,.cls-31,.cls-33{stroke-miterlimit:10;}.cls-1,.cls-16,.cls-17,.cls-18,.cls-19,.cls-2,.cls-30,.cls-31{stroke-width:0.85px;}.cls-1{stroke:url(#linear-gradient);}.cls-16,.cls-2{stroke:url(#linear-gradient-2);}.cls-2{clip-path:url(#clip-path);}.cls-19,.cls-4,.cls-6{fill:#fff;}.cls-4,.cls-5,.cls-9{stroke:#3b4043;}.cls-22,.cls-5,.cls-9{stroke-linecap:round;stroke-linejoin:round;}.cls-7{fill:#ffb600;}.cls-8{fill:#f9f9fa;}.cls-9{stroke-width:2px;}.cls-10{fill:#ffb800;}.cls-11{fill:#e7e9ec;}.cls-12{fill:#0f81ff;}.cls-13{stroke:#0f81ff;}.cls-14{fill:#c9e1ff;}.cls-15{isolation:isolate;}.cls-17{stroke:url(#linear-gradient-3);}.cls-18{stroke:url(#linear-gradient-7);}.cls-19{stroke:url(#linear-gradient-8);}.cls-20{fill:#faba05;}.cls-21{clip-path:url(#clip-path-3);}.cls-22{stroke:#fff;}.cls-23,.cls-31{fill:#4285f4;}.cls-24{fill:#ea4335;}.cls-25{fill:#fbbc05;}.cls-26{fill:#34a853;}.cls-27{stroke:#9aa0a6;stroke-width:1.43px;}.cls-28{fill:#9aa0a6;}.cls-29{fill:#3c4043;}.cls-30,.cls-33{stroke:#bdc1c6;}.cls-31{stroke:#1967d2;}.cls-32{fill:#fffff4;}.cls-33{stroke-width:0.71px;}.cls-34{fill:#757575;}</style><linearGradient id="linear-gradient" x1="174.44" y1="596.17" x2="174.44" y2="363.8" gradientUnits="userSpaceOnUse"><stop offset="0" stop-color="#fff"/><stop offset="0.2" stop-color="#fbfbfb"/><stop offset="0.4" stop-color="#eff0f1"/><stop offset="0.6" stop-color="#dadcdf"/><stop offset="0.8" stop-color="#bec2c6"/><stop offset="1" stop-color="#9aa0a6"/></linearGradient><linearGradient id="linear-gradient-2" x1="78.02" y1="549.21" x2="78.02" y2="418.93" xlink:href="#linear-gradient"/><clipPath id="clip-path"><rect class="cls-1" x="23.44" y="364.23" width="302" height="231.52" rx="7.21"/></clipPath><linearGradient id="linear-gradient-3" x1="167.88" y1="549.21" x2="167.88" y2="418.93" xlink:href="#linear-gradient"/><clipPath id="clip-path-2"><rect class="cls-2" x="36.41" y="419.35" width="83.22" height="129.44" rx="6.95"/></clipPath><linearGradient id="linear-gradient-7" x1="256.99" y1="549.21" x2="256.99" y2="418.93" xlink:href="#linear-gradient"/><linearGradient id="linear-gradient-8" x1="348.63" y1="549.21" x2="348.63" y2="418.93" xlink:href="#linear-gradient"/><clipPath id="clip-path-3"><circle class="cls-3" cx="307.86" cy="75.99" r="13.73"/></clipPath></defs><path class="cls-4" d="M12.77,38.35A25.48,25.48,0,0,1,38.26,12.87H313.49A25.48,25.48,0,0,1,339,38.35V556.73H12.77Z"/><path class="cls-5" d="M130,48.55h0a4.53,4.53,0,0,0,4.53,4.53h86.09a4.53,4.53,0,0,0,4.53-4.53h0"/><rect class="cls-6" x="38.28" y="221.86" width="275.18" height="4.04"/><rect class="cls-7" x="38.28" y="221.86" width="93.55" height="4.04"/><rect class="cls-8" x="38.28" y="226.07" width="275.18" height="55.12"/><rect class="cls-7" x="104.76" y="265.87" width="14.78" height="7.32"/><line class="cls-5" x1="175.87" y1="269.53" x2="192.61" y2="269.53"/><line class="cls-5" x1="104.76" y1="251.98" x2="213.4" y2="251.98"/><line class="cls-9" x1="104.76" y1="241.93" x2="136.66" y2="241.93"/><path class="cls-10" d="M126.29,271.81a2.28,2.28,0,1,0-2.28-2.28A2.28,2.28,0,0,0,126.29,271.81Z"/><path class="cls-10" d="M136.6,271.81a2.28,2.28,0,1,0-2.28-2.28A2.28,2.28,0,0,0,136.6,271.81Z"/><path class="cls-10" d="M146.91,271.81a2.28,2.28,0,1,0-2.28-2.28A2.28,2.28,0,0,0,146.91,271.81Z"/><path class="cls-11" d="M157.22,271.81a2.28,2.28,0,1,0-2.28-2.28A2.28,2.28,0,0,0,157.22,271.81Z"/><path class="cls-11" d="M167.53,271.81a2.28,2.28,0,1,0-2.28-2.28A2.28,2.28,0,0,0,167.53,271.81Z"/><rect class="cls-12" x="245.76" y="247.31" width="54.17" height="13.04"/><path class="cls-5" d="M38.28,300.45H282.94"/><path class="cls-5" d="M38.28,313.37H282.94"/><path class="cls-5" d="M38.28,326.29H159.5"/><path class="cls-5" d="M38.28,392.43H159.5"/><path class="cls-5" d="M38.28,339.21H58.67"/><path class="cls-5" d="M64.79,204.68H85.18"/><path class="cls-9" d="M45,124.68H102.8"/><path class="cls-13" d="M31.18,158.54H53.8"/><path class="cls-13" d="M94.25,158.54h42.59"/><path class="cls-13" d="M158.43,158.54H201"/><path class="cls-13" d="M222.62,158.54h42.6"/><path class="cls-13" d="M286.8,158.54h42.6"/><path class="cls-9" d="M110.32,124.68H143.1"/><rect class="cls-12" x="52.54" y="233.5" width="40.27" height="40.27" rx="4.93"/><path class="cls-6" d="M62.82,240.28v25.59L78,250.72A25.89,25.89,0,0,0,62.82,240.28Z"/><path class="cls-14" d="M75.86,265.87h6.65c0-.17,0-.34,0-.51A25.69,25.69,0,0,0,78,250.72L62.82,265.87C62.93,265.76,69.57,265.8,75.86,265.87Z"/><g class="cls-15"><rect class="cls-1" x="23.44" y="364.23" width="302" height="231.52" rx="7.21"/><rect class="cls-16" x="36.41" y="419.35" width="83.22" height="129.44" rx="6.95"/><rect class="cls-17" x="126.27" y="419.35" width="83.22" height="129.44" rx="6.95"/><rect class="cls-18" x="215.38" y="419.35" width="83.22" height="129.44" rx="6.95"/></g><rect class="cls-19" x="307.02" y="419.35" width="83.22" height="129.44" rx="6.95"/><circle class="cls-20" cx="307.86" cy="75.99" r="13.73"/><g class="cls-21"><circle class="cls-22" cx="307.81" cy="86.41" r="7.86"/></g><circle class="cls-22" cx="307.79" cy="72.32" r="3.56"/><path class="cls-23" d="M145,82.63a9.85,9.85,0,1,1,0-19.7,9.38,9.38,0,0,1,6.75,2.71l-1.9,1.9A6.85,6.85,0,0,0,145,65.62a7.16,7.16,0,0,0,0,14.32,6.58,6.58,0,0,0,5-2,5.59,5.59,0,0,0,1.47-3.39H145V71.89h9.06a9.34,9.34,0,0,1,.14,1.68,8.89,8.89,0,0,1-2.33,6.3A9,9,0,0,1,145,82.63Z"/><path class="cls-24" d="M168.57,76.29a6.32,6.32,0,1,1-6.31-6.35A6.24,6.24,0,0,1,168.57,76.29Zm-2.77,0a3.56,3.56,0,1,0-3.54,3.84A3.64,3.64,0,0,0,165.8,76.29Z"/><path class="cls-25" d="M182.59,76.29a6.31,6.31,0,1,1-6.31-6.35A6.24,6.24,0,0,1,182.59,76.29Zm-2.76,0a3.56,3.56,0,1,0-3.55,3.84A3.64,3.64,0,0,0,179.83,76.29Z"/><path class="cls-23" d="M196.32,70.33V81.72c0,4.68-2.77,6.61-6,6.61a6.06,6.06,0,0,1-5.62-3.75l2.43-1a3.51,3.51,0,0,0,3.19,2.26c2.1,0,3.39-1.3,3.39-3.73v-.91h-.09a4.33,4.33,0,0,1-3.34,1.44,6.35,6.35,0,0,1,0-12.69,4.43,4.43,0,0,1,3.34,1.42h.09v-1Zm-2.46,6a3.57,3.57,0,0,0-3.38-3.87,3.86,3.86,0,0,0,0,7.69A3.54,3.54,0,0,0,193.86,76.31Z"/><path class="cls-26" d="M201.92,63.6V82.25h-2.79V63.6Z"/><path class="cls-24" d="M213.78,78.38l2.16,1.44a6.33,6.33,0,0,1-5.29,2.81,6.21,6.21,0,0,1-6.3-6.34,6,6,0,0,1,6-6.35,5.9,5.9,0,0,1,5.43,4l.29.72-8.48,3.51a3.21,3.21,0,0,0,3.07,1.92A3.63,3.63,0,0,0,213.78,78.38Zm-6.66-2.28,5.67-2.36a2.47,2.47,0,0,0-2.36-1.35A3.48,3.48,0,0,0,207.12,76.1Z"/><line class="cls-27" x1="23.7" y1="84.74" x2="40.91" y2="84.74"/><line class="cls-27" x1="23.7" y1="72.72" x2="40.91" y2="72.72"/><line class="cls-27" x1="23.7" y1="78.7" x2="40.91" y2="78.7"/><path class="cls-28" d="M182.77,396.63h-9.14v-9.15h4.57v-1.3h-4.57a1.3,1.3,0,0,0-1.31,1.3v9.15a1.31,1.31,0,0,0,1.31,1.31h9.14a1.31,1.31,0,0,0,1.31-1.31v-4.57h-1.31Zm-3.26-10.45v1.3h2.34l-6.42,6.42.92.93,6.42-6.43v2.35h1.31v-4.57Z"/><rect class="cls-5" x="24.14" y="186.44" width="301.85" height="166.29" rx="7.21"/><path class="cls-29" d="M44.62,206.55H42.19l-.46,1.39H40.26l2.5-6.72H44l2.52,6.72H45.08Zm-2.06-1.12h1.68l-.84-2.52Z"/><path class="cls-29" d="M46.89,205.4a3,3,0,0,1,.52-1.86,1.71,1.71,0,0,1,1.44-.69,1.54,1.54,0,0,1,1.2.54v-2.54h1.34v7.09H50.18l-.06-.54a1.56,1.56,0,0,1-1.28.63,1.69,1.69,0,0,1-1.42-.7A3.12,3.12,0,0,1,46.89,205.4Zm1.33.1a1.92,1.92,0,0,0,.25,1.08.79.79,0,0,0,.71.37.89.89,0,0,0,.87-.52v-2a.88.88,0,0,0-.86-.53C48.54,203.93,48.22,204.46,48.22,205.5Z"/><path class="cls-29" d="M57.26,204.72a.66.66,0,0,1,.22-.52A.77.77,0,0,1,58,204a.8.8,0,0,1,.54.2.69.69,0,0,1,.21.52.66.66,0,0,1-.21.51.8.8,0,0,1-.54.2.77.77,0,0,1-.55-.2A.69.69,0,0,1,57.26,204.72Z"/><rect class="cls-30" x="30.5" y="108.12" width="291.64" height="32.47" rx="15.88"/><path class="cls-31" d="M287.9,140.77h18a16.24,16.24,0,0,0,16.23-16.24h0A16.23,16.23,0,0,0,305.9,108.3h-18Z"/><path class="cls-32" d="M311.88,129.25,307.67,125a5.27,5.27,0,1,0-1.21,1.3l4.17,4.17Zm-12-7a3.4,3.4,0,1,1,3.4,3.4A3.41,3.41,0,0,1,299.92,122.24Z"/><rect class="cls-23" x="19.89" y="172.44" width="45.13" height="3.15"/><line class="cls-33" x1="12.82" y1="175.63" x2="339.45" y2="175.63"/><path class="cls-34" d="M269.19,126.62A2.61,2.61,0,0,0,271.8,124v-5.24a2.62,2.62,0,0,0-5.23,0V124A2.61,2.61,0,0,0,269.19,126.62Zm4.63-2.62a4.63,4.63,0,0,1-9.25,0h-1.48a6.09,6.09,0,0,0,5.23,5.86v2.86h1.75v-2.86A6.08,6.08,0,0,0,275.3,124Z"/></svg>
